X:21
T:Goose berry Hornpipe,The. JGi.021
T:Worsbro Hornpipe,aka. JGi.021
S:Joshua Gibbons MS,1823,Tealby,Lincs.
M:C|
L:1/8
Q:1/2=90
R:.hornpipe
O:Tealby,Lincolnshire
Z:VMP/R.Greig, 2009
K:D
AB/c/|dcdA FDFA|Bcde dcBA|dedc BAGF|E2e2e2AB/c/|
dcdA FDFA|gfge dcdc|Bcdc Bgec|d2d2d2:|
|:fg|afdf ecAc|eceB AFDF|GFGA BAGF|E2e2e2de|
fdfd AFAF|gfge dcdc|Bcdc Bgec|d2d2d2:|

